app/assets/images/icons/active/settings.svg

<?xml version="1.0" encoding="UTF-8" standalone="no"?>
<svg width="32px" height="232px" viewBox="0 0 32 232" version="1.1" xmlns="http://www.w3.org/2000/svg" xmlns:xlink="http://www.w3.org/1999/xlink" xmlns:sketch="http://www.bohemiancoding.com/sketch/ns">
    <title>settings</title>
    <description>Created with Sketch (http://www.bohemiancoding.com/sketch)</description>
    <defs></defs>
    <g id="Graphics" stroke="none" stroke-width="1" fill="none" fill-rule="evenodd" sketch:type="MSPage">
        <path d="M25.83,136.54854 C25.836,135.65454 27.315,134.44854 28.5,133.29054 C28.356,132.72654 28.176,132.17354 27.947,131.62154 C27.729,131.06854 27.459,130.54654 27.174,130.04254 C25.518,130.04054 23.613,130.22254 22.986,129.58754 C22.332,128.92654 22.516,127.01554 22.525,125.36654 C21.541,124.79254 20.479,124.34554 19.383,124.04254 C18.211,125.20854 16.971,126.67354 16.047,126.66954 C15.152,126.66554 13.947,125.18554 12.789,124.00154 C12.225,124.14454 11.67,124.32554 11.119,124.55454 C10.565,124.77354 10.045,125.04054 9.539,125.32854 C9.539,126.98254 9.719,128.88854 9.084,129.51354 C8.424,130.17154 6.512,129.98654 4.863,129.97654 C4.291,130.95854 3.844,132.02354 3.541,133.11954 C4.705,134.28854 6.17,135.53054 6.168,136.45254 C6.166,137.34954 4.684,138.55454 3.5,139.71054 C3.643,140.27954 3.824,140.83154 4.051,141.38254 C4.27,141.93754 4.539,142.45654 4.826,142.96054 C6.481,142.96454 8.387,142.78254 9.012,143.41754 C9.666,144.07654 9.486,145.98854 9.473,147.63654 C10.457,148.20854 11.522,148.65854 12.615,148.96054 C13.787,147.79454 15.027,146.32954 15.953,146.33354 C16.846,146.33754 18.053,147.81854 19.211,149.00154 C19.776,148.85754 20.328,148.67954 20.881,148.44954 C21.434,148.23054 21.953,147.96254 22.459,147.67654 C22.461,146.02154 22.281,144.11554 22.916,143.49054 C23.576,142.83354 25.486,143.01754 27.135,143.02754 C27.707,142.04254 28.154,140.98054 28.459,139.88654 C27.293,138.71854 25.828,137.47254 25.83,136.54854 C25.83,136.54854 25.828,137.47254 25.83,136.54854 L25.83,136.54854 L25.83,136.54854 Z M16,140.96854 C13.535,140.96854 11.537,138.96854 11.537,136.50154 C11.537,134.03654 13.535,132.03854 16,132.03854 C18.465,132.03854 20.463,134.03654 20.463,136.50154 C20.463,138.96854 18.465,140.96854 16,140.96854 L16,140.96854 Z M16,140.96854" id="settings--white" fill="#206FAC" sketch:type="MSShapeGroup"></path>
        <path d="M25.83,96.54854 C25.836,95.65454 27.315,94.44854 28.5,93.29054 C28.356,92.72654 28.176,92.17354 27.947,91.62154 C27.729,91.06854 27.459,90.54654 27.174,90.04254 C25.518,90.04054 23.613,90.22254 22.986,89.58754 C22.332,88.92654 22.516,87.01554 22.525,85.36654 C21.541,84.79254 20.479,84.34554 19.383,84.04254 C18.211,85.20854 16.971,86.67354 16.047,86.66954 C15.152,86.66554 13.947,85.18554 12.789,84.00154 C12.225,84.14454 11.67,84.32554 11.119,84.55454 C10.565,84.77354 10.045,85.04054 9.539,85.32854 C9.539,86.98254 9.719,88.88854 9.084,89.51354 C8.424,90.17154 6.512,89.98654 4.863,89.97654 C4.291,90.95854 3.844,92.02354 3.541,93.11954 C4.705,94.28854 6.17,95.53054 6.168,96.45254 C6.166,97.34954 4.684,98.55454 3.5,99.71054 C3.643,100.27954 3.824,100.83154 4.051,101.38254 C4.27,101.93754 4.539,102.45654 4.826,102.96054 C6.481,102.96454 8.387,102.78254 9.012,103.41754 C9.666,104.07654 9.486,105.98854 9.473,107.63654 C10.457,108.20854 11.522,108.65854 12.615,108.96054 C13.787,107.79454 15.027,106.32954 15.953,106.33354 C16.846,106.33754 18.053,107.81854 19.211,109.00154 C19.776,108.85754 20.328,108.67954 20.881,108.44954 C21.434,108.23054 21.953,107.96254 22.459,107.67654 C22.461,106.02154 22.281,104.11554 22.916,103.49054 C23.576,102.83354 25.486,103.01754 27.135,103.02754 C27.707,102.04254 28.154,100.98054 28.459,99.88654 C27.293,98.71854 25.828,97.47254 25.83,96.54854 C25.83,96.54854 25.828,97.47254 25.83,96.54854 L25.83,96.54854 L25.83,96.54854 Z M16,100.96854 C13.535,100.96854 11.537,98.96854 11.537,96.50154 C11.537,94.03654 13.535,92.03854 16,92.03854 C18.465,92.03854 20.463,94.03654 20.463,96.50154 C20.463,98.96854 18.465,100.96854 16,100.96854 L16,100.96854 Z M16,100.96854" id="settings--subdued-grey" fill="#FFFFFF" sketch:type="MSShapeGroup"></path>
        <path d="M25.83,56.54854 C25.836,55.65454 27.315,54.44854 28.5,53.29054 C28.356,52.72654 28.176,52.17354 27.947,51.62154 C27.729,51.06854 27.459,50.54654 27.174,50.04254 C25.518,50.04054 23.613,50.22254 22.986,49.58754 C22.332,48.92654 22.516,47.01554 22.525,45.36654 C21.541,44.79254 20.479,44.34554 19.383,44.04254 C18.211,45.20854 16.971,46.67354 16.047,46.66954 C15.152,46.66554 13.947,45.18554 12.789,44.00154 C12.225,44.14454 11.67,44.32554 11.119,44.55454 C10.565,44.77354 10.045,45.04054 9.539,45.32854 C9.539,46.98254 9.719,48.88854 9.084,49.51354 C8.424,50.17154 6.512,49.98654 4.863,49.97654 C4.291,50.95854 3.844,52.02354 3.541,53.11954 C4.705,54.28854 6.17,55.53054 6.168,56.45254 C6.166,57.34954 4.684,58.55454 3.5,59.71054 C3.643,60.27954 3.824,60.83154 4.051,61.38254 C4.27,61.93754 4.539,62.45654 4.826,62.96054 C6.481,62.96454 8.387,62.78254 9.012,63.41754 C9.666,64.07654 9.486,65.98854 9.473,67.63654 C10.457,68.20854 11.522,68.65854 12.615,68.96054 C13.787,67.79454 15.027,66.32954 15.953,66.33354 C16.846,66.33754 18.053,67.81854 19.211,69.00154 C19.776,68.85754 20.328,68.67954 20.881,68.44954 C21.434,68.23054 21.953,67.96254 22.459,67.67654 C22.461,66.02154 22.281,64.11554 22.916,63.49054 C23.576,62.83354 25.486,63.01754 27.135,63.02754 C27.707,62.04254 28.154,60.98054 28.459,59.88654 C27.293,58.71854 25.828,57.47254 25.83,56.54854 C25.83,56.54854 25.828,57.47254 25.83,56.54854 L25.83,56.54854 L25.83,56.54854 Z M16,60.96854 C13.535,60.96854 11.537,58.96854 11.537,56.50154 C11.537,54.03654 13.535,52.03854 16,52.03854 C18.465,52.03854 20.463,54.03654 20.463,56.50154 C20.463,58.96854 18.465,60.96854 16,60.96854 L16,60.96854 Z M16,60.96854" id="settings--body-grey" fill="#67737B" sketch:type="MSShapeGroup"></path>
        <path d="M25.83,16.54854 C25.836,15.65454 27.315,14.44854 28.5,13.29054 C28.356,12.72654 28.176,12.17354 27.947,11.62154 C27.729,11.06854 27.459,10.54654 27.174,10.04254 C25.518,10.04054 23.613,10.22254 22.986,9.58754001 C22.332,8.92654001 22.516,7.01554001 22.525,5.36654001 C21.541,4.79254001 20.479,4.34554001 19.383,4.04254001 C18.211,5.20854001 16.971,6.67354001 16.047,6.66954001 C15.152,6.66554001 13.947,5.18554001 12.789,4.00154001 C12.225,4.14454001 11.67,4.32554001 11.119,4.55454001 C10.565,4.77354001 10.045,5.04054001 9.539,5.32854001 C9.539,6.98254001 9.719,8.88854001 9.084,9.51354001 C8.424,10.17154 6.512,9.98654001 4.863,9.97654001 C4.291,10.95854 3.844,12.02354 3.541,13.11954 C4.705,14.28854 6.17,15.53054 6.168,16.45254 C6.166,17.34954 4.684,18.55454 3.5,19.71054 C3.643,20.27954 3.824,20.83154 4.051,21.38254 C4.27,21.93754 4.539,22.45654 4.826,22.96054 C6.481,22.96454 8.387,22.78254 9.012,23.41754 C9.666,24.07654 9.486,25.98854 9.473,27.63654 C10.457,28.20854 11.522,28.65854 12.615,28.96054 C13.787,27.79454 15.027,26.32954 15.953,26.33354 C16.846,26.33754 18.053,27.81854 19.211,29.00154 C19.776,28.85754 20.328,28.67954 20.881,28.44954 C21.434,28.23054 21.953,27.96254 22.459,27.67654 C22.461,26.02154 22.281,24.11554 22.916,23.49054 C23.576,22.83354 25.486,23.01754 27.135,23.02754 C27.707,22.04254 28.154,20.98054 28.459,19.88654 C27.293,18.71854 25.828,17.47254 25.83,16.54854 C25.83,16.54854 25.828,17.47254 25.83,16.54854 L25.83,16.54854 L25.83,16.54854 Z M16,20.96854 C13.535,20.96854 11.537,18.96854 11.537,16.50154 C11.537,14.03654 13.535,12.03854 16,12.03854 C18.465,12.03854 20.463,14.03654 20.463,16.50154 C20.463,18.96854 18.465,20.96854 16,20.96854 L16,20.96854 Z M16,20.96854" id="settings--title-grey" fill="#3A434E" sketch:type="MSShapeGroup"></path>
    </g>
</svg>

<svg width="32" height="232" viewBox="0 0 32 232" xmlns="http://www.w3.org/2000/svg" xmlns:sketch="http://www.bohemiancoding.com/sketch/ns"><title>settings</title><g sketch:type="MSPage" fill="none"><path d="M25.83 136.549c.006-.894 1.485-2.1 2.67-3.258-.144-.564-.324-1.117-.553-1.669-.218-.553-.488-1.075-.773-1.579-1.656-.002-3.561.18-4.188-.455-.654-.661-.47-2.572-.461-4.221-.984-.574-2.046-1.021-3.142-1.324-1.172 1.166-2.412 2.631-3.336 2.627-.895-.004-2.1-1.484-3.258-2.668-.564.143-1.119.324-1.67.553-.554.219-1.074.486-1.58.774 0 1.654.18 3.56-.455 4.185-.66.658-2.572.473-4.221.463-.572.982-1.019 2.047-1.322 3.143 1.164 1.169 2.629 2.411 2.627 3.333-.002.897-1.484 2.102-2.668 3.258.143.569.324 1.121.551 1.672.219.555.488 1.074.775 1.578 1.655.004 3.561-.178 4.186.457.654.659.474 2.571.461 4.219.984.572 2.049 1.022 3.142 1.324 1.172-1.166 2.412-2.631 3.338-2.627.893.004 2.1 1.485 3.258 2.668.565-.144 1.117-.322 1.67-.552.553-.219 1.072-.487 1.578-.773.002-1.655-.178-3.561.457-4.186.66-.657 2.57-.473 4.219-.463.572-.985 1.019-2.047 1.324-3.141-1.166-1.168-2.631-2.414-2.629-3.338zm-9.83 4.42c-2.465 0-4.463-2-4.463-4.467 0-2.465 1.998-4.463 4.463-4.463s4.463 1.998 4.463 4.463c0 2.467-1.998 4.467-4.463 4.467zm0 0" fill="#206FAC" sketch:type="MSShapeGroup"/><path d="M25.83 96.549c.006-.894 1.485-2.1 2.67-3.258-.144-.564-.324-1.117-.553-1.669-.218-.553-.488-1.075-.773-1.579-1.656-.002-3.561.18-4.188-.455-.654-.661-.47-2.572-.461-4.221-.984-.574-2.046-1.021-3.142-1.324-1.172 1.166-2.412 2.631-3.336 2.627-.895-.004-2.1-1.484-3.258-2.668-.564.143-1.119.324-1.67.553-.554.219-1.074.486-1.58.774 0 1.654.18 3.56-.455 4.185-.66.658-2.572.473-4.221.463-.572.982-1.019 2.047-1.322 3.143 1.164 1.169 2.629 2.411 2.627 3.333-.002.897-1.484 2.102-2.668 3.258.143.569.324 1.121.551 1.672.219.555.488 1.074.775 1.578 1.655.004 3.561-.178 4.186.457.654.659.474 2.571.461 4.219.984.572 2.049 1.022 3.142 1.324 1.172-1.166 2.412-2.631 3.338-2.627.893.004 2.1 1.485 3.258 2.668.565-.144 1.117-.322 1.67-.552.553-.219 1.072-.487 1.578-.773.002-1.655-.178-3.561.457-4.186.66-.657 2.57-.473 4.219-.463.572-.985 1.019-2.047 1.324-3.141-1.166-1.168-2.631-2.414-2.629-3.338zm-9.83 4.42c-2.465 0-4.463-2-4.463-4.467 0-2.465 1.998-4.463 4.463-4.463s4.463 1.998 4.463 4.463c0 2.467-1.998 4.467-4.463 4.467zm0 0" fill="#fff" sketch:type="MSShapeGroup"/><path d="M25.83 56.549c.006-.894 1.485-2.1 2.67-3.258-.144-.564-.324-1.117-.553-1.669-.218-.553-.488-1.075-.773-1.579-1.656-.002-3.561.18-4.188-.455-.654-.661-.47-2.572-.461-4.221-.984-.574-2.046-1.021-3.142-1.324-1.172 1.166-2.412 2.631-3.336 2.627-.895-.004-2.1-1.484-3.258-2.668-.564.143-1.119.324-1.67.553-.554.219-1.074.486-1.58.774 0 1.654.18 3.56-.455 4.185-.66.658-2.572.473-4.221.463-.572.982-1.019 2.047-1.322 3.143 1.164 1.169 2.629 2.411 2.627 3.333-.002.897-1.484 2.102-2.668 3.258.143.569.324 1.121.551 1.672.219.555.488 1.074.775 1.578 1.655.004 3.561-.178 4.186.457.654.659.474 2.571.461 4.219.984.572 2.049 1.022 3.142 1.324 1.172-1.166 2.412-2.631 3.338-2.627.893.004 2.1 1.485 3.258 2.668.565-.144 1.117-.322 1.67-.552.553-.219 1.072-.487 1.578-.773.002-1.655-.178-3.561.457-4.186.66-.657 2.57-.473 4.219-.463.572-.985 1.019-2.047 1.324-3.141-1.166-1.168-2.631-2.414-2.629-3.338zm-9.83 4.42c-2.465 0-4.463-2-4.463-4.467 0-2.465 1.998-4.463 4.463-4.463s4.463 1.998 4.463 4.463c0 2.467-1.998 4.467-4.463 4.467zm0 0" fill="#67737B" sketch:type="MSShapeGroup"/><path d="M25.83 16.549c.006-.894 1.485-2.1 2.67-3.258-.144-.564-.324-1.117-.553-1.669-.218-.553-.488-1.075-.773-1.579-1.656-.002-3.561.18-4.188-.455-.654-.661-.47-2.572-.461-4.221-.984-.574-2.046-1.021-3.142-1.324-1.172 1.166-2.412 2.631-3.336 2.627-.895-.004-2.1-1.484-3.258-2.668-.564.143-1.119.324-1.67.553-.554.219-1.074.486-1.58.774 0 1.654.18 3.56-.455 4.185-.66.658-2.572.473-4.221.463-.572.982-1.019 2.047-1.322 3.143 1.164 1.169 2.629 2.411 2.627 3.333-.002.897-1.484 2.102-2.668 3.258.143.569.324 1.121.551 1.672.219.555.488 1.074.775 1.578 1.655.004 3.561-.178 4.186.457.654.659.474 2.571.461 4.219.984.572 2.049 1.022 3.142 1.324 1.172-1.166 2.412-2.631 3.338-2.627.893.004 2.1 1.485 3.258 2.668.565-.144 1.117-.322 1.67-.552.553-.219 1.072-.487 1.578-.773.002-1.655-.178-3.561.457-4.186.66-.657 2.57-.473 4.219-.463.572-.985 1.019-2.047 1.324-3.141-1.166-1.168-2.631-2.414-2.629-3.338zm-9.83 4.42c-2.465 0-4.463-2-4.463-4.467 0-2.465 1.998-4.463 4.463-4.463s4.463 1.998 4.463 4.463c0 2.467-1.998 4.467-4.463 4.467zm0 0" fill="#3A434E" sketch:type="MSShapeGroup"/></g></svg>
